carriers/postNord.svg

<svg width="128" height="64" viewBox="0 0 128 64" fill="none" xmlns="http://www.w3.org/2000/svg">
<rect width="128" height="64" rx="6" fill="white"/>
<path fill-rule="evenodd" clip-rule="evenodd" d="M9.92198 26.7692H14.322C14.574 26.7692 14.626 26.8692 14.614 27.0892C14.602 27.3092 14.614 27.5972 14.614 27.8652C14.6599 27.8722 14.7068 27.8622 14.746 27.8372C15.4426 27.1931 16.2873 26.7308 17.2053 26.4912C18.1233 26.2516 19.0863 26.2421 20.0088 26.4636C20.9313 26.6852 21.785 27.1309 22.4941 27.7612C23.2032 28.3915 23.7458 29.187 24.074 30.0772C25.13 32.8532 24.93 35.5452 22.926 37.8892C20.822 40.3412 16.798 40.4612 14.798 38.8652C14.7409 38.8334 14.6806 38.808 14.618 38.7892V43.1892H10.346C10.026 43.1892 9.91798 43.1492 9.92198 42.7892C9.92998 37.4452 9.92998 32.1052 9.92198 26.7692ZM14.506 33.0892C14.4865 33.4197 14.5323 33.7507 14.6408 34.0634C14.7492 34.3761 14.9182 34.6644 15.1381 34.9118C15.358 35.1591 15.6245 35.3608 15.9224 35.5052C16.2202 35.6496 16.5436 35.7338 16.874 35.7532H17.066C17.3914 35.7672 17.7164 35.7169 18.0224 35.6052C18.3284 35.4936 18.6094 35.3227 18.8493 35.1025C19.0893 34.8822 19.2835 34.6168 19.4209 34.3215C19.5582 34.0262 19.6361 33.7067 19.65 33.3812C19.652 33.3453 19.652 33.3092 19.65 33.2732C19.678 31.6132 18.682 30.5012 17.15 30.4732C16.8222 30.4532 16.4936 30.4979 16.1831 30.6049C15.8726 30.7119 15.5863 30.8789 15.3404 31.0966C15.0944 31.3143 14.8938 31.5783 14.75 31.8735C14.6061 32.1687 14.5219 32.4894 14.502 32.8172C14.502 32.9092 14.502 32.9812 14.506 33.0892V33.0892Z" fill="#00A0D6"/>
<path fill-rule="evenodd" clip-rule="evenodd" d="M118.074 39.5652C116.758 39.4772 115.438 39.5652 114.118 39.5292C113.985 39.5212 113.851 39.5212 113.718 39.5292C113.426 39.5692 113.354 39.4292 113.374 39.1652C113.394 38.9012 113.374 38.6612 113.374 38.3652L112.654 38.9572C110.454 40.5572 106.958 40.1852 105.086 38.1572C102.746 35.6052 102.758 30.9572 105.058 28.3892C107.142 26.0532 111.13 25.7612 113.214 27.4252C113.265 27.4485 113.319 27.466 113.374 27.4772V24.1372C113.374 23.7972 113.494 23.7052 113.774 23.6492C115.026 23.4172 116.274 23.1652 117.522 22.9212C117.594 22.9212 117.674 22.9212 117.71 22.8292C118.018 22.7612 118.082 22.8812 118.078 23.1892C118.07 28.6506 118.069 34.1092 118.074 39.5652ZM108.342 33.1052C108.342 34.6732 109.382 35.7692 110.882 35.7732C111.211 35.7872 111.54 35.7362 111.849 35.6231C112.159 35.51 112.443 35.3371 112.685 35.1143C112.928 34.8914 113.124 34.6229 113.263 34.3242C113.402 34.0255 113.48 33.7023 113.494 33.3732C113.494 33.2852 113.494 33.2012 113.494 33.1132C113.528 32.4566 113.299 31.8134 112.859 31.3251C112.419 30.8368 111.803 30.5434 111.146 30.5092C111.062 30.5092 110.978 30.5092 110.898 30.5092C110.578 30.4942 110.257 30.5425 109.955 30.6514C109.654 30.7603 109.376 30.9277 109.139 31.1439C108.902 31.3602 108.71 31.621 108.574 31.9116C108.438 32.2021 108.36 32.5167 108.346 32.8372C108.338 32.9332 108.338 33.0172 108.342 33.1052Z" fill="#00A0D6"/>
<path fill-rule="evenodd" clip-rule="evenodd" d="M85.302 26.3133C86.5983 26.2942 87.8852 26.5363 89.086 27.0253C91.79 28.1853 93.214 30.6533 92.978 33.5893C92.698 37.1013 90.306 39.1413 87.154 39.7373C85.3168 40.112 83.4094 39.9223 81.682 39.1933C78.882 37.9933 77.682 35.6453 77.818 32.7933C78.026 28.7373 80.986 26.8293 84.15 26.3933C84.594 26.3533 85.042 26.3333 85.302 26.3133ZM82.798 33.1133C82.798 33.7976 83.0698 34.4538 83.5536 34.9376C84.0375 35.4215 84.6937 35.6933 85.378 35.6933C86.0622 35.6933 86.7185 35.4215 87.2023 34.9376C87.6861 34.4538 87.958 33.7976 87.958 33.1133V33.1133C87.958 31.5133 86.902 30.4413 85.362 30.4453C84.6992 30.4292 84.057 30.6766 83.5764 31.1332C83.0957 31.5899 82.8158 32.2185 82.798 32.8813C82.798 32.9653 82.798 33.0453 82.798 33.1293V33.1133Z" fill="#00A0D6"/>
<path fill-rule="evenodd" clip-rule="evenodd" d="M33.118 26.3132C35.082 26.3612 36.922 26.8052 38.47 28.1012C39.083 28.6118 39.5848 29.2426 39.9446 29.9546C40.3044 30.6667 40.5145 31.4449 40.562 32.2412C40.73 34.1332 40.382 35.8932 39.114 37.3772C38.0414 38.5934 36.5871 39.4087 34.99 39.6892C33.1196 40.1081 31.1659 39.9463 29.39 39.2252C26.37 37.9932 25.198 35.3532 25.47 32.3932C25.794 29.0812 28.122 27.1012 31.198 26.5052C31.8303 26.3795 32.4733 26.3152 33.118 26.3132ZM33.038 30.4772C32.3476 30.4694 31.6816 30.7324 31.1828 31.2098C30.684 31.6872 30.3921 32.341 30.3696 33.031C30.3471 33.7211 30.5958 34.3925 31.0625 34.9014C31.5291 35.4103 32.1765 35.716 32.866 35.7532H33.002C33.6843 35.7317 34.3318 35.4468 34.8085 34.9581C35.2852 34.4695 35.5541 33.8152 35.5588 33.1326C35.5634 32.4499 35.3035 31.792 34.8335 31.2969C34.3635 30.8018 33.7199 30.508 33.038 30.4772V30.4772Z" fill="#00A0D6"/>
<path fill-rule="evenodd" clip-rule="evenodd" d="M68.35 27.7812C69.898 26.2692 71.7219 26.0252 73.6739 26.5492C75.4459 27.0252 76.2779 28.3572 76.6099 30.0692C76.6912 30.5286 76.7287 30.9947 76.7219 31.4612V39.0612C76.7219 39.4012 76.654 39.5292 76.282 39.5212C74.99 39.4972 73.6979 39.5212 72.4099 39.5212C72.0579 39.5212 71.95 39.4332 71.95 39.0732C71.95 36.9532 71.95 34.8372 71.95 32.7212C71.948 32.5119 71.9279 32.3031 71.8899 32.0972C71.6779 30.9812 71.2179 30.5812 70.1299 30.6292C69.6855 30.603 69.2488 30.7542 68.9158 31.0497C68.5828 31.3452 68.3807 31.7608 68.3539 32.2052C68.352 32.2319 68.352 32.2586 68.3539 32.2852C68.2499 33.4852 68.3219 34.6572 68.3139 35.8412V39.1332C68.3139 39.4532 68.2139 39.5332 67.9139 39.5332H63.95C63.662 39.5332 63.55 39.4612 63.574 39.1612V27.1292C63.574 26.7972 63.69 26.7292 63.974 26.7292C65.266 26.7292 66.558 26.7492 67.85 26.7292C68.226 26.7292 68.362 26.8292 68.318 27.2052C68.2666 27.3957 68.2778 27.5976 68.35 27.7812V27.7812Z" fill="#00A0D6"/>
<path fill-rule="evenodd" clip-rule="evenodd" d="M47.9062 26.3252C49.3858 26.3488 50.8595 26.5176 52.3062 26.8292C52.6022 26.9012 52.6622 26.9932 52.5862 27.2852C52.3462 28.2252 52.1222 29.1772 51.9262 30.1292C51.8542 30.4852 51.7222 30.4972 51.4142 30.4052C49.9753 29.9133 48.4455 29.7453 46.9342 29.9132C46.8163 29.9327 46.7 29.9608 46.5862 29.9972C46.3062 30.0812 46.0862 30.2452 46.0902 30.5572C46.0942 30.8692 46.3422 31.0212 46.6182 31.0812C47.6302 31.3092 48.6702 31.3692 49.6742 31.6292C50.2164 31.7608 50.7443 31.9457 51.2502 32.1812C52.6422 32.8412 53.2502 33.9252 53.2182 35.4652C53.1622 37.2852 52.2302 38.4572 50.6102 39.1572C49.3067 39.665 47.9168 39.9136 46.5182 39.8892C44.7757 39.9259 43.0377 39.7007 41.3622 39.2212C41.0862 39.1412 41.0102 39.0572 41.0942 38.7612C41.3702 37.7652 41.6222 36.7612 41.8582 35.7532C41.9342 35.4292 42.0502 35.4052 42.3422 35.5172C43.8793 36.1483 45.5398 36.4218 47.1982 36.3172C47.4224 36.3061 47.6431 36.256 47.8502 36.1692C47.9673 36.1336 48.0696 36.0609 48.1418 35.9621C48.2139 35.8632 48.252 35.7436 48.2502 35.6212C48.2523 35.5011 48.214 35.3838 48.1415 35.288C48.0689 35.1923 47.9663 35.1237 47.8502 35.0932C47.3218 34.9243 46.7753 34.8182 46.2222 34.7772C45.2651 34.6737 44.3246 34.452 43.4222 34.1172C42.8329 33.8854 42.3139 33.5046 41.9158 33.0122C41.5178 32.5198 41.2543 31.9325 41.1511 31.3077C41.0479 30.683 41.1086 30.0422 41.3271 29.4479C41.5457 28.8536 41.9147 28.3262 42.3982 27.9172C43.5662 26.9092 44.9902 26.5812 46.4662 26.4172C46.9822 26.3612 47.5062 26.3492 47.9062 26.3252Z" fill="#00A0D6"/>
<path fill-rule="evenodd" clip-rule="evenodd" d="M54.0859 31.6812V24.2932C54.0859 23.9492 54.1739 23.8692 54.5059 23.8732C55.8139 23.8932 57.1219 23.8972 58.4259 23.8732C58.7859 23.8732 58.8499 23.9932 58.8259 24.3092C58.8259 25.0012 58.8259 25.6932 58.8259 26.3812C58.8259 26.6932 58.9299 26.7812 59.2259 26.7572H62.7979C63.1099 26.7572 63.1979 26.8012 63.0339 27.1172C62.4179 28.2345 61.8126 29.3559 61.2179 30.4812C61.1815 30.5701 61.1165 30.6443 61.0332 30.6921C60.9499 30.7399 60.853 30.7586 60.7579 30.7452H59.2699C58.9299 30.7452 58.8459 30.8332 58.8459 31.1692V38.9812C58.8459 39.5652 58.8459 39.5652 58.2699 39.5652H54.5739C54.2059 39.5652 54.0979 39.4812 54.0979 39.1012C54.0939 36.6092 54.0859 34.1452 54.0859 31.6812Z" fill="#00A0D6"/>
<path fill-rule="evenodd" clip-rule="evenodd" d="M98.7982 28.1211C99.8782 26.6691 101.31 26.4771 102.854 26.5931C103.134 26.6171 103.254 26.7251 103.254 27.0411C103.206 28.2411 103.182 29.4731 103.162 30.6851C103.162 30.9731 103.066 31.0451 102.762 30.9731C102.223 30.8341 101.665 30.7881 101.11 30.8371C99.5982 30.9811 98.7982 31.7811 98.7982 33.3571V39.0291C98.7982 39.4091 98.7342 39.5491 98.3142 39.5371C97.0422 39.5091 95.7622 39.5371 94.4862 39.5371C94.1982 39.5371 94.0662 39.4971 94.0662 39.1371V27.1131C94.0662 26.8251 94.1382 26.7131 94.4382 26.7131C95.7702 26.7131 97.1062 26.7131 98.4382 26.7131C98.7222 26.7131 98.8022 26.8051 98.7822 27.0731C98.7622 27.3411 98.7982 27.7011 98.7982 28.1211Z" fill="#00A0D6"/>
</svg>

<svg xmlns="http://www.w3.org/2000/svg" width="128" height="64" fill="none"><rect width="128" height="64" fill="#fff" rx="6"/><path fill="#00A0D6" fill-rule="evenodd" d="M9.922 26.77h4.4c.252 0 .304.1.292.32-.012.22 0 .507 0 .775a.192.192 0 0 0 .132-.028 5.768 5.768 0 0 1 9.328 2.24c1.056 2.776.856 5.468-1.148 7.812-2.104 2.452-6.128 2.572-8.128.976a.904.904 0 0 0-.18-.076v4.4h-4.272c-.32 0-.428-.04-.424-.4.008-5.344.008-10.684 0-16.02Zm4.584 6.32a2.52 2.52 0 0 0 2.368 2.663h.192a2.478 2.478 0 0 0 2.584-2.48c.028-1.66-.968-2.772-2.5-2.8a2.5 2.5 0 0 0-2.648 2.344c0 .092 0 .164.004.272ZM118.074 39.565c-1.316-.088-2.636 0-3.956-.036a3.336 3.336 0 0 0-.4 0c-.292.04-.364-.1-.344-.364.02-.264 0-.504 0-.8l-.72.592c-2.2 1.6-5.696 1.228-7.568-.8-2.34-2.552-2.328-7.2-.028-9.768 2.084-2.336 6.072-2.628 8.156-.964.051.023.105.041.16.052v-3.34c0-.34.12-.432.4-.488 1.252-.232 2.5-.484 3.748-.728.072 0 .152 0 .188-.092.308-.068.372.052.368.36a6876.94 6876.94 0 0 0-.004 16.376Zm-9.732-6.46c0 1.568 1.04 2.664 2.54 2.668a2.505 2.505 0 0 0 2.612-2.4v-.26a2.48 2.48 0 0 0-2.348-2.604h-.248a2.445 2.445 0 0 0-2.324 1.403c-.136.29-.214.605-.228.925-.008.096-.008.18-.004.268ZM85.302 26.313a9.656 9.656 0 0 1 3.784.712c2.704 1.16 4.128 3.628 3.892 6.564-.28 3.512-2.672 5.552-5.824 6.148a9.296 9.296 0 0 1-5.472-.544c-2.8-1.2-4-3.548-3.864-6.4.208-4.056 3.168-5.964 6.332-6.4.444-.04.892-.06 1.152-.08Zm-2.504 6.8a2.58 2.58 0 1 0 5.16 0c0-1.6-1.056-2.672-2.596-2.668a2.504 2.504 0 0 0-2.564 2.436v.248-.016ZM33.118 26.313c1.964.048 3.804.492 5.352 1.788a5.84 5.84 0 0 1 2.092 4.14c.168 1.892-.18 3.652-1.448 5.136a7.147 7.147 0 0 1-4.124 2.312 9.415 9.415 0 0 1-5.6-.464c-3.02-1.232-4.192-3.872-3.92-6.832.324-3.312 2.652-5.292 5.728-5.888.632-.125 1.275-.19 1.92-.192Zm-.08 4.164a2.64 2.64 0 0 0-.172 5.276h.136a2.64 2.64 0 0 0 .036-5.276ZM68.35 27.781c1.548-1.512 3.372-1.756 5.324-1.232 1.772.476 2.604 1.808 2.936 3.52.081.46.119.926.112 1.392v7.6c0 .34-.068.468-.44.46-1.292-.024-2.584 0-3.872 0-.352 0-.46-.088-.46-.448v-6.352a3.63 3.63 0 0 0-.06-.624c-.212-1.116-.672-1.516-1.76-1.468a1.68 1.68 0 0 0-1.776 1.576.562.562 0 0 0 0 .08c-.104 1.2-.032 2.372-.04 3.556v3.292c0 .32-.1.4-.4.4H63.95c-.288 0-.4-.072-.376-.372V27.13c0-.332.116-.4.4-.4 1.292 0 2.584.02 3.876 0 .376 0 .512.1.468.476a.92.92 0 0 0 .032.576ZM47.906 26.325a22.61 22.61 0 0 1 4.4.504c.296.072.356.164.28.456-.24.94-.464 1.892-.66 2.844-.072.356-.204.368-.512.276a10.325 10.325 0 0 0-4.48-.492 2.46 2.46 0 0 0-.348.084c-.28.084-.5.248-.496.56.004.312.252.464.528.524 1.012.228 2.052.288 3.056.548.542.132 1.07.317 1.576.552 1.392.66 2 1.744 1.968 3.284-.056 1.82-.988 2.992-2.608 3.692a10.756 10.756 0 0 1-4.092.732 17.407 17.407 0 0 1-5.156-.668c-.276-.08-.352-.164-.268-.46.276-.996.528-2 .764-3.008.076-.324.192-.348.484-.236 1.537.631 3.198.905 4.856.8.224-.01.445-.061.652-.148a.565.565 0 0 0 .4-.548.537.537 0 0 0-.4-.528 7.062 7.062 0 0 0-1.628-.316 11.65 11.65 0 0 1-2.8-.66 3.66 3.66 0 0 1-1.024-6.2c1.168-1.008 2.592-1.336 4.068-1.5.516-.056 1.04-.068 1.44-.092ZM54.086 31.681v-7.388c0-.344.088-.424.42-.42 1.308.02 2.616.024 3.92 0 .36 0 .424.12.4.436v2.072c0 .312.104.4.4.376h3.572c.312 0 .4.044.236.36a216.095 216.095 0 0 0-1.816 3.364.432.432 0 0 1-.46.264H59.27c-.34 0-.424.088-.424.424v7.812c0 .584 0 .584-.576.584h-3.696c-.368 0-.476-.084-.476-.464-.004-2.492-.012-4.956-.012-7.42ZM98.798 28.121c1.08-1.452 2.512-1.644 4.056-1.528.28.024.4.132.4.448-.048 1.2-.072 2.432-.092 3.644 0 .288-.096.36-.4.288a4.89 4.89 0 0 0-1.652-.136c-1.512.144-2.312.944-2.312 2.52v5.672c0 .38-.064.52-.484.508-1.272-.028-2.552 0-3.828 0-.288 0-.42-.04-.42-.4V27.113c0-.288.072-.4.372-.4h4c.284 0 .364.092.344.36-.02.268.016.628.016 1.048Z" clip-rule="evenodd"/></svg>
